X: 00023
T: BELMONT BIRTHDAY
C: Bob McQuillen 3 Feb 95
B: Bob's Note Book ?? #23
%R: reel
Z: 2019 John Chambers <jc:trillian.mit.edu>
S: handout at a Roaring Jelly practice in early 2019
M: C
L: 1/8
K: D
AB \
| d2fd cdeg | f2d2 dBAG | FABA dBAF | EFGA Bcde |
| d2fd cdeg | f2dB AGFA | BGBd gfed | cdec d2 :|
|: fg \
| a2ab afef | gaba gefg | a2af bafd | BdAF GEFG |
| F2FG FEDE | FABc edcB | BAFA AGEC | DFAF D2 :|
%%begintext align
%% We all
%% gathered in Belmont, MA for a surprise party
%% for Marianne Taylor's 39th Birthday. Great fun!
%% Much love to you, Marianne from MAC.
%%endtext

%%sep 1 1 500

%%sep 1 1 500

